X: 241
T: Freilakhs "Hulye Kaptsn"
B: German Goldenshteyn "Shpilt klezmorimlach klingen zoln di gesalach" New York 2003
M: 2/4
L: 1/16
Q: 1/4=108
K: Ephr^g
  EEEE E4 | EEEE E4 | E2F2G2A2 | G2F2 G2zE \
| GGGG G4 | GGGG G4 | G2A2 B2c2 | B2A2 B4
| (c2B2) A4 | (B2A2 G4) | ({B}A2G2F2A2 | G8) \
|  ({B}A2G2F2A2 | G8) | ({G}F2E2D2F2 |1 E8 :|2 E6 E2 |
|: G4 (A3B | A2 G4) E2 | G4 (A3B | A2 G4) E2 \
| G4A4 | B4 c4 |1 (B2A2G2A2) | B4 e4 :|2 (B2A2GF2 | E8) |
|: A8 | c8 | A4 e4 | c4 A4 \
| A3B c2c2 | c2c2c2c2 | (c3BA2c2 | B8) \
| ({c}B2A2G2B2 | A8) | ({B}A2G2F2A2 | G8) \
| ({G}F2E2D2F2 | E8) :|
